X:1
T:All For My Grog
M:4/4
L:1/8
K:G
 D| D2 B3/2 A/2 G3 F| EF GE D4| d2 d3/2 d/2 d2 cB| B A3- A2 Bc|d-e dB G2 GF|\
 EA GE D2 GA| Bd cB BA GF| A4 G2- G|
